icons/medium_bars_fill.svg

<svg width="48" height="48" viewBox="0 0 48 48" fill="none" xmlns="http://www.w3.org/2000/svg">
<path d="M19 21C19 19.3431 20.3431 18 22 18H26C27.6569 18 29 19.3431 29 21V39C29 40.6569 27.6569 42 26 42H22C20.3431 42 19 40.6569 19 39V21Z" fill="black"/>
<path d="M6 33C6 31.3431 7.34315 30 9 30H13C14.6569 30 16 31.3431 16 33V39C16 40.6569 14.6569 42 13 42H9C7.34315 42 6 40.6569 6 39V33Z" fill="black"/>
<path fill-rule="evenodd" clip-rule="evenodd" d="M32 9C32 7.34315 33.3431 6 35 6H39C40.6569 6 42 7.34315 42 9V39C42 40.6569 40.6569 42 39 42H35C33.3431 42 32 40.6569 32 39V9ZM35 8C34.4477 8 34 8.44772 34 9V39C34 39.5523 34.4477 40 35 40H39C39.5523 40 40 39.5523 40 39V9C40 8.44772 39.5523 8 39 8H35Z" fill="black"/>
</svg>

<svg
  xmlns="http://www.w3.org/2000/svg"
  width="24"
  height="24"
  viewBox="0 0 24 24"
  fill="none"
  stroke="currentColor"
  stroke-width="2"
  stroke-linecap="round"
  stroke-linejoin="round"
>
  <path d="M19 21a3 3 0 0 1 3-3h4a3 3 0 0 1 3 3v18a3 3 0 0 1-3 3h-4a3 3 0 0 1-3-3z" />
  <path d="M6 33a3 3 0 0 1 3-3h4a3 3 0 0 1 3 3v6a3 3 0 0 1-3 3H9a3 3 0 0 1-3-3z" />
  <path
    fill-rule="evenodd"
    d="M32 9a3 3 0 0 1 3-3h4a3 3 0 0 1 3 3v30a3 3 0 0 1-3 3h-4a3 3 0 0 1-3-3zm3-1a1 1 0 0 0-1 1v30a1 1 0 0 0 1 1h4a1 1 0 0 0 1-1V9a1 1 0 0 0-1-1z"
    clip-rule="evenodd"
  />
</svg>
